X:1
T:Gionto m'hamor
T:Gionto m'hamor
T:Jean de Castro
T:Source : Chansons, madrigaux et motetz à 3 parties---Anvers---P.Phalèse---1582. Editor : André Vierendeels (09/10/15).
T:Notes : Original clefs : C1, C3, C3 Editorial accidentals above the staff
T:#
T:#
C:Jean de Castro
%%score [ 1 [ 2 3 ] ]
L:1/8
Q:1/4=120
M:4/4
K:F
V:1 treble nm="Superius" snm="S"
V:2 treble-8 nm="Tenor 1" snm="T 1"
V:3 treble-8 nm="Tenor 2" snm="T 2"
V:1
 G8 | G4 G4- | G2 FE F4 | G8 | z4 z2 d2 | e2 c2 d4 | z2 G2 A2 A2 | =B2 B2 ^c4 | d2 D2 E2 E2 | %9
w: Gion-|to m'ha-||mor,|gion-|to m'ha- mor|fra bel- l'e|cru- da brac-|cia, fra bel- l'e|
 ^F2 F2 G4 | A4 z2 G2 | A4 =B4 | c2 d2 c4 | d2 A4 B2 | c2 d4 c2 | d2 A2 z2 G2 | A2 B4 d2 | c4 B4- | %18
w: cru- da brac-|cia, fra|bel- l'e|cru- da brac-|cia, che m'uc-|ci- don a|tor- to, che|m'uc- ci- don|a tor-|
 B2 AG A4 | B4 z2 B2 | G4 ^F4 | G8- | G8 | G8 | z8 | d8 | B4 B4 | A8 | B6 c2 | d8 | z4 d4 | d4 c4 | %32
w: |to, e|s'io mi|do-||glio,||e|s'io mi|do-|glio, _|_|dop-|pia'il mar-|
 d8 | z4 G4 | G4 ^F4 | G8 | z4 c4 | c4 =B4 | c4 A2 A2 | B4 G2 G2 | A4 F4 | c2 c2 d4 | B2 B2 G4 | %43
w: tir,|dop-|pia'il mar-|tir,|dop-|pia'il mar-|tir on- de|pur com' io|fo- glio,|on- de pur|com' io fo-|
 c4 z2 A2 | B3 A G2 G2 | c4 A2 A2 | d4 =B4 | z2 G2 c3 B | A2 F2 B4 | G4 z2 d2 | c2 B2 A4 | %51
w: glio, il|me- gli'e ch'io mi|mo- ra, mi|mo- ra,|il me- gli'e|ch'io mi mo-|ra, a-|mand' e cac-|
 =B4 z2 G2 | c3 B A2 A2 | d4 =B4 | z2 G2 c3 B | A2 F2 B4 | G4 z2 d2 | c2 B2 A4 | =B4 z4 |] %59
w: cia, il|me- gli'e ch'io mi|mo- ra,|il me- gli'e|ch'io mi mo-|ra, a-|mand' e cac-|cia.|
V:2
 z4 G4 | =B8 | c4 A4 | z4 G4 | g4 ^f4 | g2 a2 f2 g2 | e2 e2 ^f2 f2 | g2 g2 e4 | d2 g4 a2- | %9
w: Gion-|to|m'ha- mor,|gion-|to m'ha-|mor, gion- te m'ha-|mor fra bel- l'e|cru- da brac-|cia, fra bel-|
 a2 d2 e2 e2 | ^f4 g4 | c2 d4 g2 | e2 f2 e4 | d4 z2 d2 | e2 f2 g2 e2 | ^f6 g2 | z2 d2 d2 G2 | %17
w: * l'e cru- da|brac- cia,|fra bel- l'e|cru- da brac-|cia, che|m'uc- ci- don a|tor- to,|che m'uc- ci-|
 A4 B4 | c8 | d4 z2 G2 | c4 d4 | _e8 | d2 d2 _e2 e2 | c8 | =B8 | z4 d4- | d4 g4- | g2 ^f2 f4 | %28
w: don a|tor-|to, e|s'io mi|do-|glio, e s'io mi|do-|glio,|e|_ s'io|_ mi do-|
 g4 g4- | g4 f4 | z4 d4 | f4 e4 | g4 d4- | d4 c4 | B4 A4 | z4 G4 | A4 f4 | d8 | z4 ^f2 f2 | %39
w: glio, dop-|* pia,|dop-|pia'il mar-|tir, dop-|* pia'il|mar- tir,|dop-|pia'il mar-|tir|on- de|
 g4 e2 e2 | f4 d4 | e2 e2 ^f2 g2- | g2 d2 e4- | e4 f4 | d2 g3 f e2 | e2 a4 f2 | z2 d2 g3 f | %47
w: pur com' io|fo- glio,|on- de pur com'|_ io fo-|* glio,|il me- gli'e ch'io|mi mo- ra,|il me- gli'e|
 e2 c4 f2- | f2 d2 z2 g2 | e4 ^f2 a2 | a2 g2 ^f4 | g4 z4 | z2 c2 f3 e | d2 d2 g4 | e2 c4 f2- | %55
w: ch'io mi mo-|* ra, a-|mand' e cac-|cia, e cac-|cia,|il me- gli'e|ch'io mi mo-|ra, il me-|
 fe d4 d2 | _e4 d2 a2 |"^#" a2 g2 f4 | g4 z4 |] %59
w: * gli'e ch'io mi|mo- ra, a-|mand' e cac-|cia.|
V:3
 z8 | z4 G4 | C4 D4 | G4 z2 d2 | _e2 c2 d4 | z2 A2 B2 G2 | c4 z4 | z2 G2 A2 A2 |"^#" =B2 B2 c4 | %9
w: |Gion-|to m'ha-|mor, gion-|to m'ha- mor|gion- to m'ha-|mor,|fra bel- l'e|cru- da brac-|
 d4 z4 | z2 D2 E2 E2 | F2 F2 G4 | A8 | z8 | z8 | D6 E2 | F2 G4 B2 | F8- | F8 | B8 | z8 | c8 | %22
w: cia,|fra bel- l'e|cru- da bra-|cia,|||che m'uc-|ci- don a|tor-||to,||e|
 =B4 c4 |"^b" e8 | d4 G4 | G4 ^F4 | G8 | D8 | z8 | B8 | A4 G4 | A8 | G8 | F4 _E4 | D8 | z4 d4 | %36
w: s'io mi|do-|glio, e|s'io mi|do-|glio,||dop-|pia'il mar-|tir,|dop-|pia'il mar-|tir,|dop-|
 c4 F4 | G8 | A2 A2 d4 | G2 G2 c4 | F4 B2 B2 | A4 z4 | G2 G2 c4 | A2 A2 d4 | G2 G2 c3 B | %45
w: pia'il mar-|tir|on- de pur|com' io fo-|glio, on- de|pur,|on- de pur|com' e fo-|glio, il me- gli'e|
 A2 A2 d4 | B4 z2 G2 | c3 B A2 F2- | F2 B4 G2 | z4 z2 D2 |"^-natural" F2 G2 D4 | G2 G2 c3 B | %52
w: ch'io mi mo-|ra, il|me- gli'e ch'io mi|_ mo- ra,|a-|mand' e cac-|cia, il me- gli'e|
 A2 A2 d4 | B4 z2 G2 | c3 B A2 F2- | F2 B4 G2 | z4 z2 D2 | F2 G2 D4 | G4 z4 |] %59
w: ch'io mi mo-|ra, il|me- gli'e ch'io mi|_ mo- ra,|a-|mand' e cac-|cia.|

